packages/icons/svg/Navigation_Display_Calendar_24px.svg

<svg xmlns="http://www.w3.org/2000/svg" viewBox="0 0 24 24"><path d="M17.5 4V3a1 1 0 00-2 0v1H13V3a1 1 0 00-2 0v1H8.5V3a1 1 0 00-2 0v1H3a1 1 0 00-1 1v16a1 1 0 001 1h18a1 1 0 001-1V5a1 1 0 00-1-1zm-11 2v1a1 1 0 002 0V6H11v1a1 1 0 002 0V6h2.5v1a1 1 0 002 0V6H20v3.5H4V6zM4 20v-8.5h16V20z"/></svg>

<svg xmlns="http://www.w3.org/2000/svg" viewBox="0 0 24 24"><defs></defs><g id="Icon"><path  d="M17.5,4V3a1,1,0,0,0-2,0V4H13V3a1,1,0,0,0-2,0V4H8.5V3a1,1,0,0,0-2,0V4H3A1,1,0,0,0,2,5V21a1,1,0,0,0,1,1H21a1,1,0,0,0,1-1V5a1,1,0,0,0-1-1ZM6.5,6V7a1,1,0,0,0,2,0V6H11V7a1,1,0,0,0,2,0V6h2.5V7a1,1,0,0,0,2,0V6H20V9.5H4V6ZM4,20V11.5H20V20Z"/></g></svg>
